X:1
T:Torrevär (Dry weather)
R:Jig
C:Nils Pettersson
O:Billinge, Skåne
M:6/8
L:1/8
K:Gm
D |: "Gm"G2 A BAG | "Cm"A2 B c2 c | "Gm"BAG "D"AG^F |1 "Gm"G3 G z D :| 
|2 "Gm"G3 G2 z |: ggg d2 d | ggg d2 d | "Cm"c2 c B2 c | "Gm"d3 d2 z | 
"Gm"ggg d2 d | ggg d2 d | "Cm"c2 c "D"B2 A | "Gm"G3 G2 z :|

